X:0528
T:Roger's Farewell
N:Auld Lang Syne, The Miller's Wedding...
M:C
L:1/8
Q:1/4=120
I: :: ::
Z:Jack Campin * www.campin.me.uk * 2009
K:G
D|G2 G>B A>GAB |G<(GG>)B ({B}d2)d>g|G2 G>B A>GAB |G<EE>D G2G::
e|d<BB>G A>GA>e|d<BB>G       B2 B>e|d<BB>G A>GAB |G<EE>D G2Ge|
  d<BB>G A>GAe |d<BB>G       B2 B>c|d>gB>g A>GA>B|G<EE>D G2G:|
<end>
<start>
